source/images/icons/icon-editorial/localisation.svg

<?xml version="1.0" encoding="UTF-8"?>
<svg width="80px" height="80px" viewBox="0 0 80 80" version="1.1" xmlns="http://www.w3.org/2000/svg" xmlns:xlink="http://www.w3.org/1999/xlink">
    <!-- Generator: Sketch 55.2 (78181) - https://sketchapp.com -->
    <title>Illustrative Icons/Localisation</title>
    <desc>Created with Sketch.</desc>
    <g id="Illustrative-Icons/Localisation" stroke="none" stroke-width="1" fill="none" fill-rule="evenodd">
        <path d="M40.0001126,74.9991583 C39.6020864,74.9991583 39.2172145,74.8566428 38.9151126,74.5974917 C38.6717793,74.3874917 32.8701126,69.3824917 26.9917793,61.4041583 C23.5284459,56.7024916 20.7651126,51.945825 18.7784459,47.2641583 C16.2717792,41.355825 15,35.545825 15,29.9991583 C14.9837067,24.5545716 16.7607933,19.2561124 20.0567793,14.9224916 C23.277131,10.6820471 27.7582122,7.57096308 32.8567793,6.03582492 C33.7390542,5.77302943 34.6673171,6.2752167 34.9301126,7.15749159 C35.1929081,8.03976648 34.6907208,8.96802943 33.8084459,9.23082492 C29.3892305,10.5620831 25.5055577,13.2595319 22.7151126,16.9358249 C19.8592435,20.6907369 18.3193819,25.2816213 18.3334459,29.9991583 C18.3334459,36.3891583 20.2934459,46.665825 29.6301126,59.365825 C32.7319309,63.5711061 36.2023224,67.4916112 40.0001126,71.080825 C43.7978964,67.491605 47.2682875,63.5711006 50.3701126,59.365825 C55.523446,52.3591583 61.6667793,41.575825 61.6667793,29.9991583 C61.6819949,25.2487215 60.1210437,20.6274151 57.228446,16.8591583 C54.3995499,13.1674936 50.4657059,10.4756395 46.0001126,9.17582492 C45.4250643,9.01358701 44.980859,8.55593709 44.8358347,7.97630815 C44.6908104,7.39667921 44.8671585,6.78376559 45.2980496,6.36983966 C45.7289406,5.95591372 46.3484399,5.80431408 46.9217793,5.97249159 C52.0743654,7.46988162 56.6138894,10.5740892 59.878446,14.8324916 C63.2170405,19.1819534 65.0183478,24.5161209 65.0002497,29.9991583 C65.0002497,35.545825 63.728446,41.355825 61.2217793,47.2641583 C59.2351126,51.945825 56.4717793,56.7024916 53.008446,61.4041583 C47.1301126,69.3824917 41.3284459,74.3891583 41.0851126,74.5974917 C40.7830107,74.8566428 40.3981388,74.9991583 40.0001126,74.9991583 Z M40.0001126,8.33249646 C39.8881561,8.33276413 39.7764648,8.321595 39.6667793,8.29915826 C39.5598709,8.27841004 39.4554173,8.24657124 39.3551126,8.20415826 C39.2541582,8.16272739 39.1575722,8.11136375 39.0667793,8.05082492 C38.9754788,7.99079533 38.8905885,7.92154273 38.8134459,7.84415825 C38.1628094,7.19332517 38.1628094,6.13832467 38.8134459,5.48749159 C38.8906043,5.41012454 38.9754927,5.34087346 39.0667793,5.28082492 C39.1575666,5.22027662 39.2541535,5.16891247 39.3551126,5.12749158 C39.455409,5.08505575 39.559865,5.0532162 39.6667793,5.03249158 C39.8812804,4.98916947 40.1022782,4.98916947 40.3167793,5.03249158 C40.4236935,5.0532162 40.5281496,5.08505575 40.6284459,5.12749158 C40.729405,5.16891247 40.825992,5.22027662 40.9167793,5.28082492 C41.0996388,5.40147743 41.2561268,5.55796542 41.3767793,5.74082492 C41.4369749,5.83123632 41.4883231,5.92723506 41.5301126,6.02749159 C41.5723013,6.12845196 41.6041312,6.23343467 41.6251126,6.34082492 C41.6695866,6.55520935 41.6695866,6.77644049 41.6251126,6.99082492 C41.6043644,7.09773329 41.5725256,7.20218692 41.5301126,7.30249159 C41.4886817,7.403446 41.4373181,7.50003197 41.3767793,7.59082492 C41.2560908,7.7736551 41.0996095,7.93013647 40.9167793,8.05082492 C40.8259863,8.11136375 40.7294004,8.16272739 40.6284459,8.20415826 C40.5281413,8.24657124 40.4236876,8.27841004 40.3167793,8.29915826 C40.2125532,8.32050403 40.1064989,8.33166764 40.0001126,8.33249646 L40.0001126,8.33249646 Z M40.0001126,43.3324916 C32.6363159,43.3324916 26.6667793,37.362955 26.6667793,29.9991583 C26.6667793,22.6353616 32.6363159,16.6658249 40.0001126,16.6658249 C47.3639093,16.6658249 53.333446,22.6353616 53.333446,29.9991583 C53.3251795,37.3595282 47.3604825,43.3242252 40.0001126,43.3324916 L40.0001126,43.3324916 Z M40.0001126,19.9991583 C34.4772651,19.9991583 30.0001126,24.4763108 30.0001126,29.9991583 C30.0001126,35.5220058 34.4772651,39.9991583 40.0001126,39.9991583 C45.5229601,39.9991583 50.0001126,35.5220058 50.0001126,29.9991583 C49.9936837,24.4789759 45.520295,20.0055872 40.0001126,19.9991583 L40.0001126,19.9991583 Z" id="Shape-color" fill="#ADB5BD"></path>
    </g>
</svg>

<svg width="80" height="80">
    <title>
        Illustrative Icons/Localisation
    </title>
    <path d="M40 75c-.398 0-.783-.143-1.085-.403-.243-.21-6.045-5.215-11.923-13.193-3.464-4.702-6.227-9.458-8.214-14.14C16.272 41.356 15 35.546 15 30a24.782 24.782 0 0 1 5.057-15.077 25.193 25.193 0 0 1 12.8-8.886 1.667 1.667 0 1 1 .951 3.195 21.833 21.833 0 0 0-11.093 7.705 21.473 21.473 0 0 0-4.382 13.063c0 6.39 1.96 16.667 11.297 29.367A87.958 87.958 0 0 0 40 71.08a87.96 87.96 0 0 0 10.37-11.715c5.153-7.007 11.297-17.79 11.297-29.367a21.467 21.467 0 0 0-4.439-13.14A21.833 21.833 0 0 0 46 9.176a1.667 1.667 0 1 1 .922-3.204 25.18 25.18 0 0 1 12.956 8.86A24.774 24.774 0 0 1 65 30c0 5.547-1.272 11.357-3.778 17.265-1.987 4.682-4.75 9.438-8.214 14.14-5.878 7.978-11.68 12.985-11.923 13.193-.302.26-.687.402-1.085.402zm0-66.668a1.644 1.644 0 0 1-.645-.128 1.647 1.647 0 0 1-.542-.36A1.667 1.667 0 1 1 40 8.332zm0 35c-7.364 0-13.333-5.969-13.333-13.333S32.637 16.666 40 16.666c7.364 0 13.333 5.97 13.333 13.333C53.325 37.36 47.36 43.324 40 43.332zM40 20c-5.523 0-10 4.477-10 10s4.477 10 10 10 10-4.477 10-10c-.006-5.52-4.48-9.993-10-10z" fill="#ADB5BD" fill-rule="evenodd"/>
</svg>
